docs/media/cursor/cur6.svg

<?xml version="1.0" encoding="UTF-8"?>
<!DOCTYPE svg  PUBLIC '-//W3C//DTD SVG 1.1//EN'  'http://www.w3.org/Graphics/SVG/1.1/DTD/svg11.dtd'>
<svg version="1.1" viewBox="0 0 640 640" xmlns="http://www.w3.org/2000/svg" xmlns:xlink="http://www.w3.org/1999/xlink">
<defs>
<path id="a" d="m420 322.9c0 69.99-57.15 126.81-127.54 126.81s-127.53-56.82-127.53-126.81 57.14-126.81 127.53-126.81 127.54 56.82 127.54 126.81z"/>
<path id="c" d="m473.46 320c0 100.52-81.1 182.12-181 182.12-99.89 0-181-81.6-181-182.12s81.11-182.12 181-182.12c99.9 0 181 81.6 181 182.12z"/>
<path id="b" d="m443.46 318.82c0.66 84.53-66.46 153.69-149.8 154.35-83.33 0.65-151.53-67.45-152.19-151.99-0.66-84.53 66.46-153.69 149.79-154.35 83.34-0.65 151.54 67.45 152.2 151.99z"/>
</defs>
<use fill="#132fe2" xlink:href="#a"/>
<use fill-opacity="0" stroke="#1218e2" stroke-opacity=".44" stroke-width="9" xlink:href="#a"/>
<use fill-opacity="0" stroke="#f1f0e3" stroke-width="4" xlink:href="#c"/>
<use fill-opacity="0" stroke="#f1f0e3" stroke-width="4" xlink:href="#b"/>
</svg>

<?xml version="1.0" encoding="UTF-8" standalone="no"?>
<!DOCTYPE svg PUBLIC "-//W3C//DTD SVG 1.1//EN" "http://www.w3.org/Graphics/SVG/1.1/DTD/svg11.dtd">
<svg version="1.1" xmlns="http://www.w3.org/2000/svg" xmlns:xlink="http://www.w3.org/1999/xlink" preserveAspectRatio="xMidYMid meet" viewBox="0 0 640 640" width="640" height="640"><defs><path d="M420 322.9C420 392.89 362.85 449.71 292.46 449.71C222.07 449.71 164.93 392.89 164.93 322.9C164.93 252.91 222.07 196.09 292.46 196.09C362.85 196.09 420 252.91 420 322.9Z" id="l5wnTF4Uz"></path><path d="M473.46 320C473.46 420.52 392.36 502.12 292.46 502.12C192.57 502.12 111.46 420.52 111.46 320C111.46 219.48 192.57 137.88 292.46 137.88C392.36 137.88 473.46 219.48 473.46 320Z" id="a3M6evTCNO"></path><path d="M443.46 318.82C444.12 403.35 377 472.51 293.66 473.17C210.33 473.82 142.13 405.72 141.47 321.18C140.81 236.65 207.93 167.49 291.26 166.83C374.6 166.18 442.8 234.28 443.46 318.82Z" id="a6UeLdOMl"></path></defs><g><g><g><use xlink:href="#l5wnTF4Uz" opacity="1" fill="#132fe2" fill-opacity="1"></use><g><use xlink:href="#l5wnTF4Uz" opacity="1" fill-opacity="0" stroke="#1218e2" stroke-width="9" stroke-opacity="0.44"></use></g></g><g><g><use xlink:href="#a3M6evTCNO" opacity="1" fill-opacity="0" stroke="#f1f0e3" stroke-width="4" stroke-opacity="1"></use></g></g><g><g><use xlink:href="#a6UeLdOMl" opacity="1" fill-opacity="0" stroke="#f1f0e3" stroke-width="4" stroke-opacity="1"></use></g></g></g></g></svg>
